symbols/web/cancel_presentation/materialsymbolssharp/cancel_presentation_wght100_48px.svg

<svg xmlns="http://www.w3.org/2000/svg" height="48" width="48"><path d="M18.55 30.25 24 24.8l5.45 5.45.8-.8L24.8 24l5.45-5.45-.8-.8L24 23.2l-5.45-5.45-.8.8L23.2 24l-5.45 5.45ZM6.6 37.4V10.6h34.8v26.8Zm1.1-1.1h32.6V11.7H7.7Zm0 0V11.7v24.6Z"/></svg>

<svg xmlns="http://www.w3.org/2000/svg" height="48" width="48"><path d="M18.55 30.25 24 24.8 29.45 30.25 30.25 29.45 24.8 24 30.25 18.55 29.45 17.75 24 23.2 18.55 17.75 17.75 18.55 23.2 24 17.75 29.45ZM6.6 37.4V10.6H41.4V37.4ZM7.7 36.3H40.3V11.7H7.7ZM7.7 36.3V11.7V36.3Z"/></svg>
